X: 6
T: Glen Of Aherlow, The
Z: Jesse
S: https://thesession.org/tunes/496#setting30281
R: reel
M: 4/4
L: 1/8
K: Edor
B2AF BFAF | E3F EDFA | B2AF BFAF | DFAF FEE2 |
B2AF BFAF | ~E3F EDB,B, | A,E~E2 B,EGB | dBAF GE~E2 ||
eB~B2 efge | fd~d2 Adfd | eB~B2 egfe | dBAF FEE2 |
eB~B2 egfe | fd~d2 Adfd | ~B3d egfe | dBAF FEE2 ||
